X:13
I:linebreak $
T:Casuelle la Nouvelle
T:La Spagna
N:adapted from Heinrich Isaac setting
K:F major clef=G-8
M:6/4
L:1/2
(d3 | d3) | A3 | G3 | B3 | A3 | (G3 | G3) | B3 | c3 | (d3 | d3) |
f3 | e3 | d3 | f3 | g3 | g3 | c3 | d3 | c3 | c3 | g3 | g3 | 
f3 | f3 | g3 | c3 | B3 || _e3 | (d3 | d3) | G3 | A3 | c3 | d3 | f3 | 
_e3 | d3 | c3 | B3 | A3 | G3 | d3 | (G3  | HG3 ) |]

